assets/icons/dark-mode-24.svg

<svg width="24" height="24" viewBox="0 0 24 24" fill="none" xmlns="http://www.w3.org/2000/svg">
<path fill-rule="evenodd" clip-rule="evenodd" d="M16.1666 4.08915C16.1595 4.16013 16.1709 4.22185 16.1925 4.26922C16.7114 5.40709 17 6.6712 17 8C17 12.9706 12.9706 17 8.00003 17C6.67123 17 5.40713 16.7114 4.26925 16.1925C4.22189 16.1709 4.16016 16.1595 4.08918 16.1666C4.06665 16.1688 4.04552 16.1727 4.02609 16.1777C5.53248 19.0465 8.539 21 12 21C16.9706 21 21 16.9706 21 12C21 8.53897 19.0465 5.53245 16.1777 4.02606C16.1728 4.04548 16.1689 4.06662 16.1666 4.08915ZM16.2334 3.90766C16.2334 3.9077 16.2329 3.90825 16.2319 3.90921C16.2329 3.90811 16.2334 3.90763 16.2334 3.90766ZM3.90769 16.2334C3.90766 16.2333 3.90814 16.2328 3.90924 16.2318C3.90827 16.2329 3.90772 16.2334 3.90769 16.2334ZM15.5263 2.04735C15.9782 1.89247 16.4646 1.93168 16.9097 2.15402C20.5183 3.95662 23 7.68759 23 12C23 18.0751 18.0752 23 12 23C7.68762 23 3.95665 20.5183 2.15406 16.9097C1.93171 16.4646 1.8925 15.9782 2.04738 15.5262C2.19525 15.0947 2.4919 14.7731 2.80962 14.5599C3.42683 14.1459 4.31196 14.0138 5.09912 14.3728C5.98168 14.7752 6.96325 15 8.00003 15C11.866 15 15 11.866 15 8C15 6.96322 14.7753 5.98165 14.3728 5.09909C14.0138 4.31193 14.1459 3.4268 14.56 2.80959C14.7731 2.49187 15.0947 2.19522 15.5263 2.04735Z" fill="#F2F2F2"/>
</svg>

<svg xmlns="http://www.w3.org/2000/svg" width="24" height="24" viewBox="0 0 24 24"><path fill-rule="evenodd" d="M16.167 4.09a.351.351 0 00.025.18A9 9 0 014.27 16.192a.351.351 0 00-.18-.026.415.415 0 00-.063.01 9 9 0 1012.151-12.15.441.441 0 00-.011.064zm.066-.182zM3.908 16.233l.001-.001a.014.014 0 01-.001.001zM15.526 2.047a1.774 1.774 0 011.384.107A11 11 0 0123 12c0 6.075-4.925 11-11 11a11 11 0 01-9.846-6.09 1.774 1.774 0 01-.107-1.384c.148-.431.445-.753.763-.966a2.387 2.387 0 012.29-.187 7 7 0 009.274-9.274 2.387 2.387 0 01.186-2.29c.213-.317.535-.614.966-.762z"/></svg>
